!!!OTL: Es war ein J&auml;ger (Band 1), S. 183
!!!id: P0837
**kern
*clefG2
*k[f#]
*G:
{16g
=1
16g
8d
8g
8a
=2
4.b
=3
8f#
8g
8e
=4
4.d}
=5
{8a
8a
8a
=6
4a
8a
=7
8f#
8g
8e
=8
4d}
8r
=9
{8g
8f#
8g
=10
8e
8e
8d
=11
16g
16g
8f#
8g
=12
8e
8.e
16e
=13
4d}
8r
=14
{8d
8g
8a
=15
8b
8b
8g
=16
8a
8b
8a
=17
4g}
8r
==
*-
!!!minrhy: 16
!!!meters: 3/8 ]  ZZ[4
!!!cut: Es war ein J&auml;ger (Band 1), S. 183
!!!reg: Lothringen
!!!trd: PINCK, Louis: Verklingende Weisen, Bd 1, Metz 1928
!!!rhy1:   X_X_X_  X__.  X_X_X_  X__.   (x2)
!!!rhy2: X_X_X_  X__X_  X_X_X_  X__0
!!!key: P0837  16  G 3/8 ]  ZZ[4
!!!mod: SECHSTONSKALA DUR ?]  AMBITUS[6
!!!kad: -5-5-51
!!!akz: -53-7-5_22-7-5_1-61-6-5_-5321_
!!!fot: 'a__b__c__d__
!!!for: 'a__b__c__d__
!!!fok: '^__Sd_Sd_^a_
!! PHRAS[VOLLTAKTIG]
!!!fkt: Jagen
!! LOTH VKL
!! PR[18] 2K[0] 2G[21] 3K[3] 3G[3] 4A[9] 4Ü[0] 5A[0] 6K[0] 6G[0]
!! 7K[0] 7G[0] 8A[0] MEHR[0] SI[35] ABS[34] SR[21] SP[15]
!! ST[8] 2k[6] 2g[38] 3k[3] 3g[0] 4d[0] 4ü[0] 5d[0] 6k[0] 6g[0]
!! 7k[0] 7g[0] 8d[0] mehr[0] si[47] dm[-12] sr[44] sp[3]
!! 1F[31] 2F[64] 3F[3] 4F[0] LF[0] 2P[3] 3P[0] 4P[0] TRI[0] DF[4] AB[36]
!! TF[0] U3K[0] U3[0] U4[0] U4Ü[0] U5[9] U6K[0] U6[3] U7K[0] U7[3]
!! N1[17] N2K[0] N2[26] N3K[0] N3[26] N4[9] N4Ü[0] N5[9] N6K[0] N6[0]
!!!n7k: 0] N7[0] O1[0] O2K[0] O2[0] O3K[0] O3[0] HÖ[0
!!!RNB: symbol: &auml;      = a umlaut  (UTF-8: Å„)
